X:1
T:New Year's Gift [1]
T:New Year's Gift [1]
T:James Hill
C:James Hill
L:1/8
M:2/2
K:A
V:1 treble 
V:1
 cd | e2 e^d eaga | faga fedc | Bdfe dcBA | GAFG E2 cd | e2 e^d eaga | faga fedc | Bcdf eEFG | %8
 A/B/c/d/ ec A2 :: BA | GABc edBG | ABcd ecAc | cBdc e^dfe | gfaf ecdf | e2 e^d eaga | faga fedc | %16
 Bcdf eEFG | (A/B/)c/d/ ec A2 :| %18

